X: 202
M: 2/4
L: 1/16
K: G
|:\
d4 cBAB | G2B2G2B2 | d4 cBAB | G2B2G2z2 :|\
|: "2.F"B2 |\
|: "2.F."d2 |\
gfga bagf | g2d2B2G2 | gfga bagf | g6 :|\
|: "1.F"cd |\
e6 d2 | c2Bc A2Bc | d6 c2 | B2AB G4 |

